FlatUX/src/svg/Mattel - Intellivision-content.svg

<svg enable-background="new 0 0 256 256" viewBox="0 0 256 256" xmlns="http://www.w3.org/2000/svg"><path d="m40 60h176v52h-176z" fill="#223140"/><path d="m168.172 76h51.828v-4h-52c-2.209 0-4-1.791-4-4v-8h-72v8c0 2.209-1.791 4-4 4h-52v4h51.828c2.089 0 3.955 1.527 4.153 3.607.228 2.386-1.642 4.393-3.981 4.393h-52v4h51.828c2.089 0 3.955 1.527 4.153 3.607.228 2.386-1.642 4.393-3.981 4.393h-52v4h52c2.209 0 4 1.791 4 4 0 2.209-1.791 4-4 4h-52v132h184v-132h-52c-2.209 0-4-1.791-4-4 0-2.209 1.791-4 4-4h52v-4h-51.828c-2.089 0-3.955-1.527-4.153-3.607-.228-2.386 1.642-4.393 3.981-4.393h52v-4h-52c-2.339 0-4.209-2.007-3.981-4.393.198-2.08 2.064-3.607 4.153-3.607z" fill="#2b3e51"/><path d="m216 12h-176l-4 52h184z" fill="#35495f"/><path d="m214 120h-172c-1.105 0-2-.895-2-2 0-1.105.895-2 2-2h172c1.105 0 2 .895 2 2 0 1.105-.895 2-2 2z" fill="#35495f"/><path d="m205.172 27.693c-.16-2.084-1.898-3.693-3.988-3.693h-146.368c-2.09 0-3.828 1.609-3.988 3.693l-1.538 20c-.179 2.323 1.658 4.307 3.988 4.307h149.444c2.33 0 4.167-1.984 3.988-4.307z" fill="#1b80bb"/></svg>

<svg xmlns="http://www.w3.org/2000/svg" viewBox="0 0 256 256"><path fill="#223140" d="M40 60h176v52H40z"/><path fill="#2b3e51" d="M168.172 76H220v-4h-52a4 4 0 0 1-4-4v-8H92v8a4 4 0 0 1-4 4H36v4h51.828c2.089 0 3.955 1.527 4.153 3.607A4 4 0 0 1 88 84H36v4h51.828c2.089 0 3.955 1.527 4.153 3.607A4 4 0 0 1 88 96H36v4h52a4 4 0 0 1 0 8H36v132h184V108h-52a4 4 0 0 1 0-8h52v-4h-51.828c-2.089 0-3.955-1.527-4.153-3.607A4 4 0 0 1 168 88h52v-4h-52a4 4 0 0 1-3.981-4.393c.198-2.08 2.064-3.607 4.153-3.607"/><path fill="#35495f" d="M216 12H40l-4 52h184zm-2 108H42a2 2 0 1 1 0-4h172a2 2 0 1 1 0 4"/><path fill="#1b80bb" d="M205.172 27.693A4 4 0 0 0 201.184 24H54.816a4 4 0 0 0-3.988 3.693l-1.538 20A4 4 0 0 0 53.278 52h149.444a4 4 0 0 0 3.988-4.307z"/></svg>
